app/assets/images/page-section.svg

<svg enable-background="new 0 0 20 24" viewBox="0 0 20 24" xmlns="http://www.w3.org/2000/svg"><path d="m17.8 7h-2.8c-1.1 0-2-.9-2-2v-2.8c0-.1-.1-.2-.3-.2h-10.2c-.3 0-.5.2-.5.5v18.8.2.3c0 .1.1.2.2.1h15.3c.3 0 .5-.2.5-.5v-14.2c0-.1-.1-.2-.2-.2z" opacity=".33"/><path d="m14.1 11h-8.2c-.5 0-1 .4-1 1 0 .5.4 1 1 1h8.2c.5 0 1-.4 1-1s-.4-1-1-1z"/><path d="m19.7 5.7-4.3-4.3-1.1-1.1c-.2-.2-.4-.3-.7-.3h-11.6c-1.1 0-2 .9-2 2v19.2.3.5c0 1.1.9 2 2 2h16c1 0 1.8-.7 2-1.6 0-.1 0-.3 0-.4v-15.6c0-.3-.1-.5-.3-.7zm-1.9 1.3c.1 0 .2.1.2.2v14.2c0 .3-.2.5-.5.5h-15.3c-.1.1-.2 0-.2-.1v-.3-.2-18.8c0-.3.2-.5.5-.5h10.2c.2 0 .3.1.3.2v2.8c0 1.1.9 2 2 2z"/></svg>

<svg xmlns="http://www.w3.org/2000/svg" viewBox="0 0 20 24"><path d="M17.8 7H15c-1.1 0-2-.9-2-2V2.2c0-.1-.1-.2-.3-.2H2.5c-.3 0-.5.2-.5.5v19.3c0 .1.1.2.2.1h15.3c.3 0 .5-.2.5-.5V7.2c0-.1-.1-.2-.2-.2" opacity=".33"/><path d="M14.1 11H5.9c-.5 0-1 .4-1 1 0 .5.4 1 1 1h8.2c.5 0 1-.4 1-1s-.4-1-1-1"/><path d="m19.7 5.7-4.3-4.3L14.3.3c-.2-.2-.4-.3-.7-.3H2C.9 0 0 .9 0 2v20c0 1.1.9 2 2 2h16c1 0 1.8-.7 2-1.6v-16c0-.3-.1-.5-.3-.7M17.8 7c.1 0 .2.1.2.2v14.2c0 .3-.2.5-.5.5H2.2c-.1.1-.2 0-.2-.1V2.5c0-.3.2-.5.5-.5h10.2c.2 0 .3.1.3.2V5c0 1.1.9 2 2 2z"/></svg>
